X: 282
T: Tolka Polka
C:Donal Lunny
R:Polka
M:2/4
L:1/8
K:Ador
"Am"A>B cg|de cA|"G"B/c/B/A/ Gd|AB "(Em)"GE|
"Am"A>B cg|de cA|"G"B/c/B/A/ Gd|"Am"BA A2:|2BA e/d/c/B/||
"D"d>e fa|ga fd|"G"(g/e/d/c/ B)"Am"(e/d/|c/B/A) (c/B/A/G/|
"Am"A>)B cg|de cA|"G"B/c/B/A/ Gd|"Am"BA A2:|
M:5/8
"Em"e>fg "D"fd|"Em"e>fg "D"fd|f/g/f/e/d "Am"cB|"G"d>cB "Am"cg|
M:2/4
"Am"de cA|"G"B/c/B/A/ Gd|1"Am"BA A2:|2BA e/d/c/B/||

